X:10
T:score105
L:1/8
Q:1/4=96
M:9/8
I:linebreak $
K:C
 cBc G3 E3 | D^CD A6 | GBA AGF FED |$ E6- E3 | cBc G3 E3 | D^CD A6 |$ GBA AGF FED | C6- C3 |] %8
